X:1
T: Borowlaski's Fancy
R: jig
B: RSCDS 24-__
Z: 1997 by John Chambers <jc:trillian.mit.edu>
M: 6/8
L: 1/8
%
K: C
|: G \
| "C"c>dc e2c | e2c "F"A2A | "C"GAG ceg | e3 "G7"d2G \
| "C"cec e2c | e2c "F"A2a | "C"gec "G"dcd | "C"e3 c2 :|
|| e \
| "G"d2c B2c | d2g ^f2g | d2c "D7"B2A | "G"B3 G2e \
| "G"d2c B2c | de^f "C"g2e | "D7"ded cBA | "G"G2G "d.C."G2 |]
